X:1
T:BWV 0780
T:Invention 9   (A = 415 Hz)
T:Johann Sebastian Bach
%%score { 1 | 2 }
L:1/8
Q:1/4=112
M:3/4
K:Ab
V:1 treble 
V:2 bass 
V:1
"^Moderato" c/B/A/G/ AF d2- | d/c/B/=A/ BG =e2- | e/f/g/a/ bg/=e/ dc | %3
 B/A/G/A/ B/d/c/B/ A/G/F/=E/ | ^Gf- f/g/a/g/ f/e/d/c/ | Bg- g/a/b/a/ g/f/=e/=d/ | %6
 c/=d/=e/f/ g/a/b/g/ f/e/f/e/ | fc- c/B/A/G/ F/=E/A/G/ | c/B/A/G/ AF a2- | a/g/f/=e/ f=d =B2- | %10
 B/c/=d/e/ fd/=B/ AG- | G/F/E/=D/ EC e2- | e/=d/c/=B/ c=A ^f2- | f/g/=a/b/ c'a/^f/ e=d | %14
 c/4=B/4=A/4B/4c/4B/4c/4B/4 c/4B/4c/4B/4 B c/4B/4c3/2- | %15
 c/>=d/c/4=B/4c/4d/4 e/4d/4e/4d/4e/4d/4e/4d/4 e/4d/4e/4d/4 c | c2- c/=d/e/d/ c/B/A/G/ | %17
 F=d- d/e/f/e/ d/c/=B/=A/ | G/=A/=B/c/ =d/e/f/d/ c/B/c/B/ | g2- g/f/e/=d/ c2- | c/B/=A/G/ AF e2- | %21
 e/d/c/d/ e/_g/f/e/ d/c/B/A/ | Gb- b/a/g/f/ e/d/c/B/ | Aceg a2- | a/g/f/e/ d/B/a g2- | %25
 g/f/e/d/ c/A/_g f2- | f/e/d/c/ B/A/G/A/ B2- | B/A/G/F/ =E/F/G/A/ B/c/d/B/ | c/B/A/G/ AF d2- | %29
 d/c/B/=A/ BG =e2- | e/f/g/a/ bg/=e/ dc | B/A/G/A/ B/d/c/B/ A/G/F/=E/ | %32
 c/4B/4cd/ A/4G/4F/4G/4A/4G/4A/4G/4 A/4G/4A/4G/4 F |[Q:1/4=48] !fermata!F6 |] %34
V:2
 F,,F,- F,/G,/A,/G,/ F,/E,/D,/C,/ | B,,G,- G,/A,/B,/A,/ G,/F,/=E,/=D,/ | %2
 C,/=D,/=E,/F,/ G,/A,/B,/G,/ F,/E,/F,/E,/ | F,2 z/ C,/=D,/=E,/ F,/G,/A,/B,/ | %4
 C/B,/A,/G,/ A,F, D2- | D/C/B,/=A,/ B,G, =E2- | E/F/G/A/ BG/=E/ DC | %7
 B,/A,/G,/A,/ B,/D/C/B,/ A,/G,/F,/=E,/ | ^G,F,- F,/=G,/A,/G,/ F,/_E,/=D,/C,/ | %9
 =B,,A,- A,/G,/F,/E,/ =D,/C,/B,,/=A,,/ | G,,/=A,,/=B,,/C,/ =D,/E,/F,/D,/ C,/B,,/C,/B,,/ | %11
 ^D,C- C/=D/E/D/ C/B,/A,/G,/ | ^F,E- E/=D/C/B,/ =A,/G,/F,/=E,/ | %13
 =D,/=E,/^F,/G,/ =A,/B,/C/A,/ G,/F,/G,/F,/ | G,/=A,/=B,/C/ =D/E/F/D/ E/C/D/E/ | %15
 F/G/A/F/ G/=D/E/F/ G,/F/E/D/ | E/F,/E,/=D,/ E,C, A,2- | A,/G,/F,/=E,/ F,=D, =B,2- | %18
 B,/C/=D/E/ FD/=B,/ A,G, | F,/E,/=D,/E,/ F,/A,/G,/F,/ E,/D,/C,/B,,/ | %20
 =A,,C- C/B,/=A,/G,/ F,/E,/D,/C,/ | B,,D,F,=A, B,2- | B,/A,/G,/F,/ G,E, D2- | %23
 D/C/B,/C/ D/F/E/D/ C/B,/A,/G,/ | F,F- F/E/D/C/ B,/A,/G,/^A,/ | E,E- E/D/C/B,/ A,/_G,/F,/A,/ | %26
 D,D- D/C/B,/A,/ G,/F,/=E,/G,/ | C,2- C,/=D,/=E,/F,/ G,/A,/B,/G,/ | %28
 A,/B,/C- C/B,/A,/G,/ F,/E,/D,/C,/ | B,,/C,/D,- D,/C,/B,,/A,,/ G,,/F,,/=E,,/=D,,/ | %30
 C,,/=D,,/=E,,/F,,/ G,,/A,,/B,,/G,,/ F,,/E,,/F,,/E,,/ | F,,2 z/ C,/=D,/=E,/ F,/E,/F,/G,/ | %32
 A,/G,/A,/B,/ CB, CC, | !fermata!F,,6 |] %34

